X:1
T:The Stoutest Man in the Forty Twa
M:4/4
L:1/4
K:G
 G| D G G3/2 B/2| A G E3/2 E/2| D G G B| d B d| d| e e d/2d/2 B| A/2A/2 G/2 E3/2 E|\
 D G B3/2 B/2| A G G| d/2| e e d B| A G E E/2E/2| D G G B| d B d| d/2d/2|\
 e/2 e3/2 d B| A G E E/2E/2| D G B3/2 B/2| A G G||||

